app/public/images/facebook.svg

<svg xmlns="http://www.w3.org/2000/svg" viewBox="-35 -20 110 110"><path d="M39.979 3.248c-.093-.566-.485-1.04-1.022-1.237-3.277-1.196-7.608-2.381-12.256-2.384-3.646-.001-7.509.743-11.1 2.837-1.808 1.051-3.233 2.38-4.318 3.876-1.633 2.247-2.502 4.833-2.992 7.458-.395 2.123-.544 4.286-.624 6.383-.936.022-1.997.029-2.963.029-.845 0-1.618-.005-2.181-.011l-.666-.007-.244-.004c-.424-.006-.84.162-1.143.459-.302.299-.474.714-.471 1.139l.063 10.56c.006.88.718 1.654 1.596 1.654h1.109c1.555 0 4.457-.067 6.688-.023.33 7.254.408 18.125.408 26.56 0 3.556-.015 6.655-.027 8.887l-.02 2.612-.008.943c-.004.424.162.833.463 1.135.3.3.71.468 1.135.466l14.134-.071c.425-.002.825-.172 1.123-.475.299-.302.462-.705.458-1.131 0 0-.074-8.691-.161-18.066-.074-8.062-.156-16.618-.203-20.603.872-.015 1.888-.021 2.876-.02 1.155 0 2.279.007 3.113.014l1 .01.375.004c.425.006.834-.159 1.137-.457.303-.298.474-.704.475-1.129l.018-9.781c.001-.425-.166-.97-.467-1.269-.3-.299-.704-.605-1.13-.605h-.528c-.338 0-.819.144-1.396.144-1.773 0-4.455.063-6.577.027.038-1.085.136-2.008.296-2.826.154-.796.366-1.441.616-1.972.188-.398.397-.712.621-.975.34-.394.708-.66 1.182-.858.473-.196 1.068-.313 1.83-.314 1.353-.004 3.211.396 5.538 1.295l.054.016.053.022.102.02.16.032.153.01.157-.001.151-.02.151-.031.142-.048.143-.059.13-.073.13-.087.112-.096.112-.111.095-.119.089-.131.072-.142.047-.095.017-.057.021-.05c.321-1.058.872-2.831 1.345-4.702.236-.938.455-1.902.617-2.831.161-.93.27-1.818.271-2.646-.002-.366-.024-.721-.081-1.075z" fill="#FFF"/></svg>

<svg xmlns="http://www.w3.org/2000/svg" xmlns:xlink="http://www.w3.org/1999/xlink" viewBox="-35 -20 110 110" xml:space="preserve"><g fill='#FFF'><path d="M39.979,3.248 C39.886,2.682 39.494,2.208 38.957,2.011 C35.68,0.815 31.349,-0.37 26.701,-0.373 C23.055,-0.374 19.192,0.37 15.601,2.464 L15.601,2.464 C13.793,3.515 12.368,4.844 11.283,6.34 C9.65,8.587 8.781,11.173 8.291,13.798 C7.896,15.921 7.747,18.084 7.667,20.181 C6.731,20.203 5.67,20.21 4.704,20.21 C3.859,20.21 3.086,20.205 2.523,20.199 C2.242,20.196 2.015,20.194 1.857,20.192 C1.699,20.189 1.615,20.188 1.613,20.188 C1.189,20.182 0.773,20.35 0.47,20.647 C0.168,20.946 -0.004,21.361 -0.001,21.786 L0.062,32.346 C0.068,33.226 0.78,34 1.658,34 L2.767,34 C4.322,34 7.224,33.933 9.455,33.977 C9.785,41.231 9.863,52.102 9.863,60.537 C9.863,64.093 9.848,67.192 9.836,69.424 C9.828,70.537 9.822,71.422 9.816,72.036 C9.811,72.649 9.808,72.977 9.808,72.979 C9.804,73.403 9.97,73.812 10.271,74.114 C10.571,74.414 10.981,74.582 11.406,74.58 L25.54,74.509 C25.965,74.507 26.365,74.337 26.663,74.034 C26.962,73.732 27.125,73.329 27.121,72.903 C27.121,72.903 27.047,64.212 26.96,54.837 C26.886,46.775 26.804,38.219 26.757,34.234 C27.629,34.219 28.645,34.213 29.633,34.214 C30.788,34.214 31.912,34.221 32.746,34.228 C33.162,34.231 33.507,34.235 33.746,34.238 C33.987,34.241 34.121,34.242 34.121,34.242 C34.546,34.248 34.955,34.083 35.258,33.785 C35.561,33.487 35.732,33.081 35.733,32.656 L35.751,22.875 C35.752,22.45 35.585,21.905 35.284,21.606 C34.984,21.307 34.58,21.001 34.154,21.001 L33.626,21.001 C33.288,21.001 32.807,21.145 32.23,21.145 C30.457,21.145 27.775,21.208 25.653,21.172 C25.691,20.087 25.789,19.164 25.949,18.346 C26.103,17.55 26.315,16.905 26.565,16.374 C26.753,15.976 26.962,15.662 27.186,15.399 C27.526,15.005 27.894,14.739 28.368,14.541 C28.841,14.345 29.436,14.228 30.198,14.227 C31.551,14.223 33.409,14.623 35.736,15.522 C35.753,15.529 35.772,15.531 35.79,15.538 C35.809,15.544 35.824,15.555 35.843,15.56 C35.877,15.571 35.911,15.572 35.945,15.58 C35.999,15.593 36.052,15.605 36.105,15.612 C36.157,15.618 36.208,15.62 36.258,15.622 C36.311,15.623 36.362,15.624 36.415,15.621 C36.467,15.617 36.517,15.61 36.566,15.601 C36.617,15.593 36.668,15.583 36.717,15.57 C36.765,15.557 36.813,15.54 36.859,15.522 C36.908,15.505 36.956,15.486 37.002,15.463 C37.047,15.441 37.089,15.416 37.132,15.39 C37.176,15.363 37.22,15.334 37.262,15.303 C37.302,15.274 37.338,15.241 37.374,15.207 C37.414,15.171 37.452,15.135 37.486,15.096 C37.52,15.058 37.55,15.018 37.581,14.977 C37.612,14.935 37.643,14.892 37.67,14.846 C37.696,14.802 37.719,14.753 37.742,14.704 C37.757,14.672 37.776,14.643 37.789,14.609 C37.797,14.591 37.799,14.572 37.806,14.552 C37.811,14.535 37.822,14.52 37.827,14.502 C38.148,13.444 38.699,11.671 39.172,9.8 C39.408,8.862 39.627,7.898 39.789,6.969 C39.95,6.039 40.059,5.151 40.06,4.323 C40.058,3.957 40.036,3.602 39.979,3.248 L39.979,3.248 Z"/></g></svg>
